!!!COM: Henri Reber
!!!CNT: Francais
!!!TXO: Francais
!!!OTL: Voeu
!!!ODT: 1850/
!!!LYR: Victor Hugo
!!!ENC: Jacob Pegg
!!!YOR: Romantic French Song 1830-1870, David Tunley, ed., New York: Garland Publishing, Inc., 1995, vol. 3
!!NB: Vocal melody and text only encoded.
!!NB: First instance of melodic material only encoded.
**kern	**silbe
*clef G2	*
*k[b-]	*
*M3/8	*
=9	=9
{4a	{Si
8a	j'e/-
=10	=10
4a	-tais
8a	la
=11	=11
8a	feuil-
8g	-le
8a	que
=12	=12
([4cc	rou-
16cc_	|
48cc]	|
48dd	|
48cc	|
=13	=13
[4b-	|
16b-_	|
48b-]	|
48cc	|
48b-)	|
=14	=14
4a}	-le}
8r	.
=15	=15
{8.a	{L'ai^-
16b-	-le
16cc	tour-
16dd	-noy-
=16	=16
4cc	-an-
16b-	-te
16a	du
=17	=17
4.g}	vent,}
=18	=18
8r	.
8r	.
{8c	{Qui
=19	=19
4.a	flot-
=20	=20
4a	-te
8a	sur
=21	=21
8a	l'eau
8g	qui
8a	s'e/-
=22	=22
([4cc	-cou-
16cc_	|
48cc]	|
48dd	|
48cc	|
=23	=23
[4b-	|
16b-_	|
48b-]	|
48cc	|
48b-)	|
=24	=24
4a}	-le.}
8r	.
=25	=25
{4g	{Et
8g	qu'on
=26	=26
4b-	suit
24b-	de
24cc	|
24b-	|
=27	=27
(8a	l'oeil
4cc	|
=28	=28
8cc)	|
8b-	en
8e	re^-
=29	=29
4.f}	-vant;}
=30	=30
4.r	.
=31	=31
{4f	{Je
8f	me
=32	=32
(24f	li-
24g	|
24f	|
8b-)	|
8cc	-vre-
=33	=33
4.dd	-rais,
=34	=34
(8dd	frai\-
8ee)	-che
8dd	en-
=35	=35
(24dd	-co-
24ee	|
24dd	|
8cc#)	|
8a}	-re,}
=36	=36
8r	.
{8a	{De
8a	la
=37	=37
(8a	bran-
8bn)	|
8cc#	-che
=38	=38
8dd	me
8cc#	de/-
8dd	-ta-
=39	=39
[4.ee	-chant,
=40	=40
4.ee]}	|}
=41	=41
{4.ff	Au
=42	=42
4.ee	ze/-
=43	=43
(8dd	-phyr
8ee)	|
8dd	qui
=44	=44
8cc	souffle
8dd	a\
8cc	l'au-
=45	=45
([4cc	-ro-
16cc_	|
48cc]	|
48dd	|
48cc	|
=46	=46
[4b-	|
16b-_	|
48b-]	|
48cc	|
48b-)	|
=47	=47
4.a}	-re,}
=48	=48
4.r	.
=49	=49
{4dd	{Au
8dd	ruis-
=50	=50
4g	-seau
8g	qui
=51	=51
(4a	vient
8dd)	|
=52	=52
4cc	du
8cc	cou-
=53	=53
ccq	-chant.
[4.ff	|
=54	=54
4ff]}	|}
8r	.
*-	*-
